src/components/icon/img/source-code.svg

<svg viewBox="0 0 50 50" xmlns="http://www.w3.org/2000/svg"><path d="m4.93.75a3 3 0 0 1 .83-.33l.93-.23h2.24v3.57h-3.12a14.35 14.35 0 0 1 -.39 3.74 8.74 8.74 0 0 1 -.88 2.18 2.42 2.42 0 0 1 -1 1 2.38 2.38 0 0 1 -.83.23 1.94 1.94 0 0 1 .83.28 2.93 2.93 0 0 1 1 1 7.62 7.62 0 0 1 .88 2.12 14.4 14.4 0 0 1 .39 3.74h3.12v3.57h-2.24l-.93-.22a3.37 3.37 0 0 1 -.83-.34 4.5 4.5 0 0 1 -1.22-1.17 3.86 3.86 0 0 1 -.54-2.29c0-2-.37-3.18-1.12-3.51a6 6 0 0 0 -2.49-.5v-5.25c.45 0 .89 0 1.31-.06a2.25 2.25 0 0 0 1.18-.44 2.55 2.55 0 0 0 .83-1.23 7.8 7.8 0 0 0 .29-2.4 3.88 3.88 0 0 1 .54-2.29 4.66 4.66 0 0 1 1.22-1.17zm30.47 10.16c1 0 1.56.59 1.56 1.78a2 2 0 0 1 -.44 1.23 1.37 1.37 0 0 1 -1.12.56h-21.88a1.41 1.41 0 0 1 -1.07-.56 1.8 1.8 0 0 1 -.45-1.23 1.73 1.73 0 0 1 .49-1.28 1.44 1.44 0 0 1 1.07-.5zm0 10.71c1 0 1.56.6 1.56 1.79a2 2 0 0 1 -.44 1.22 1.35 1.35 0 0 1 -1.12.56h-21.88a1.38 1.38 0 0 1 -1.07-.56 1.79 1.79 0 0 1 -.45-1.22 1.77 1.77 0 0 1 .49-1.29 1.47 1.47 0 0 1 1.07-.5zm0 10.72c1 0 1.56.59 1.56 1.78a2 2 0 0 1 -.44 1.23 1.37 1.37 0 0 1 -1.12.56h-21.88a1.41 1.41 0 0 1 -1.07-.56 1.8 1.8 0 0 1 -.45-1.23 1.73 1.73 0 0 1 .49-1.28 1.44 1.44 0 0 1 1.07-.5zm10.45.44a6.57 6.57 0 0 0 .34 2.4 3 3 0 0 0 .81 1.23 2.1 2.1 0 0 0 1.17.45h1.37v5.25a6.26 6.26 0 0 0 -2.54.5c-.78.33-1.17 1.51-1.17 3.51a3.84 3.84 0 0 1 -.54 2.29 4.64 4.64 0 0 1 -1.22 1.17 3.54 3.54 0 0 1 -.83.34l-.93.22h-2.13v-3.52h3.13a14.4 14.4 0 0 1 .39-3.74 7.46 7.46 0 0 1 .88-2.12 2.83 2.83 0 0 1 1-1 2 2 0 0 1 .83-.28 2.43 2.43 0 0 1 -.83-.23 2.29 2.29 0 0 1 -1-1 8.37 8.37 0 0 1 -.88-2.18 14.32 14.32 0 0 1 -.39-3.73h-3.13v-3.58h2.15l.93.23a3.13 3.13 0 0 1 .83.33 5 5 0 0 1 1.22 1.17 3.88 3.88 0 0 1 .54 2.29z" fill="#1873b4"/></svg>

<svg id="Ebene_1" data-name="Ebene 1" xmlns="http://www.w3.org/2000/svg" viewBox="0 0 50 50"><defs><style>.cls-1{fill:#1873b4;}</style></defs><title>source_code_50x50px</title><path class="cls-1" d="M4.93.75A3,3,0,0,1,5.76.42L6.69.19H8.93V3.76H5.81A14.35,14.35,0,0,1,5.42,7.5a8.74,8.74,0,0,1-.88,2.18,2.42,2.42,0,0,1-1,1,2.38,2.38,0,0,1-.83.23,1.94,1.94,0,0,1,.83.28,2.93,2.93,0,0,1,1,1,7.62,7.62,0,0,1,.88,2.12,14.4,14.4,0,0,1,.39,3.74H8.93v3.57H6.69l-.93-.22a3.37,3.37,0,0,1-.83-.34,4.5,4.5,0,0,1-1.22-1.17,3.86,3.86,0,0,1-.54-2.29c0-2-.37-3.18-1.12-3.51a6,6,0,0,0-2.49-.5V8.34c.45,0,.89,0,1.31-.06a2.25,2.25,0,0,0,1.18-.44,2.55,2.55,0,0,0,.83-1.23,7.8,7.8,0,0,0,.29-2.4,3.88,3.88,0,0,1,.54-2.29A4.66,4.66,0,0,1,4.93.75ZM35.4,10.91c1,0,1.56.59,1.56,1.78a2,2,0,0,1-.44,1.23,1.37,1.37,0,0,1-1.12.56H13.52a1.41,1.41,0,0,1-1.07-.56A1.8,1.8,0,0,1,12,12.69a1.73,1.73,0,0,1,.49-1.28,1.44,1.44,0,0,1,1.07-.5Zm0,10.71c1,0,1.56.6,1.56,1.79a2,2,0,0,1-.44,1.22,1.35,1.35,0,0,1-1.12.56H13.52a1.38,1.38,0,0,1-1.07-.56A1.79,1.79,0,0,1,12,23.41a1.77,1.77,0,0,1,.49-1.29,1.47,1.47,0,0,1,1.07-.5Zm0,10.72c1,0,1.56.59,1.56,1.78a2,2,0,0,1-.44,1.23,1.37,1.37,0,0,1-1.12.56H13.52a1.41,1.41,0,0,1-1.07-.56A1.8,1.8,0,0,1,12,34.12a1.73,1.73,0,0,1,.49-1.28,1.44,1.44,0,0,1,1.07-.5Zm10.45.44a6.57,6.57,0,0,0,.34,2.4A3,3,0,0,0,47,36.41a2.1,2.1,0,0,0,1.17.45c.45,0,.91,0,1.37,0v5.25a6.26,6.26,0,0,0-2.54.5c-.78.33-1.17,1.51-1.17,3.51a3.84,3.84,0,0,1-.54,2.29,4.64,4.64,0,0,1-1.22,1.17,3.54,3.54,0,0,1-.83.34l-.93.22H40.18V46.62h3.13a14.4,14.4,0,0,1,.39-3.74,7.46,7.46,0,0,1,.88-2.12,2.83,2.83,0,0,1,1-1,2,2,0,0,1,.83-.28,2.43,2.43,0,0,1-.83-.23,2.29,2.29,0,0,1-1-1,8.37,8.37,0,0,1-.88-2.18,14.32,14.32,0,0,1-.39-3.73H40.18V28.76h2.15l.93.23a3.13,3.13,0,0,1,.83.33,5,5,0,0,1,1.22,1.17A3.88,3.88,0,0,1,45.85,32.78Z"/></svg>
